Catalina-dark/actions/16/search.svg

<?xml version="1.0" encoding="UTF-8" standalone="no"?>
<svg
   xmlns:dc="http://purl.org/dc/elements/1.1/"
   xmlns:cc="http://creativecommons.org/ns#"
   xmlns:rdf="http://www.w3.org/1999/02/22-rdf-syntax-ns#"
   xmlns:svg="http://www.w3.org/2000/svg"
   xmlns="http://www.w3.org/2000/svg"
   xmlns:sodipodi="http://sodipodi.sourceforge.net/DTD/sodipodi-0.dtd"
   xmlns:inkscape="http://www.inkscape.org/namespaces/inkscape"
   width="16"
   height="16"
   viewBox="0 0 16 16"
   version="1.1"
   id="svg7"
   sodipodi:docname="cm_search.svg"
   inkscape:version="0.92.4 5da689c313, 2019-01-14">
  <metadata
     id="metadata11">
    <rdf:RDF>
      <cc:Work
         rdf:about="">
        <dc:format>image/svg+xml</dc:format>
        <dc:type
           rdf:resource="http://purl.org/dc/dcmitype/StillImage" />
      </cc:Work>
    </rdf:RDF>
  </metadata>
  <sodipodi:namedview
     pagecolor="#ffffff"
     bordercolor="#666666"
     borderopacity="1"
     objecttolerance="10"
     gridtolerance="10"
     guidetolerance="10"
     inkscape:pageopacity="0"
     inkscape:pageshadow="2"
     inkscape:window-width="640"
     inkscape:window-height="480"
     id="namedview9"
     showgrid="false"
     inkscape:zoom="14.75"
     inkscape:cx="6.8135593"
     inkscape:cy="8"
     inkscape:window-x="0"
     inkscape:window-y="26"
     inkscape:window-maximized="0"
     inkscape:current-layer="svg7" />
  <defs
     id="defs3">
    <style
       id="current-color-scheme"
       type="text/css">
   .ColorScheme-Text { color:#5c616c; } .ColorScheme-Highlight { color:#5294e2; }
  </style>
  </defs>
  <path
     style="fill:#f1f6f8;fill-opacity:0.8509804"
     class="ColorScheme-Text"
     d="M 6.4902344 0.99609375 C 3.4613344 0.99609375 0.99023438 3.4706937 0.99023438 6.4960938 C 0.99023438 9.5214938 3.4613344 11.996094 6.4902344 11.996094 C 7.6422344 11.996094 8.7279444 11.638254 9.6152344 11.027344 L 13.302734 14.714844 A 1.0055 1.0055 0 1 0 14.708984 13.277344 L 11.021484 9.5898438 C 11.632274 8.7038438 12.021484 7.6459938 12.021484 6.4960938 C 12.021484 3.4706937 9.5190344 0.99609375 6.4902344 0.99609375 z M 6.4902344 2.9960938 C 8.4376344 2.9960938 9.9902344 4.5508938 9.9902344 6.4960938 C 9.9902344 8.4411937 8.4376344 9.9960938 6.4902344 9.9960938 C 4.5428344 9.9960938 2.9902344 8.4411937 2.9902344 6.4960938 C 2.9902344 4.5508938 4.5428344 2.9960938 6.4902344 2.9960938 z"
     id="path5" />
</svg>

<svg width="16" height="16" version="1.1" viewBox="0 0 16 16" xmlns="http://www.w3.org/2000/svg">
<defs>
<style id="current-color-scheme" type="text/css">.ColorScheme-Text { color:#5c616c; } .ColorScheme-Highlight { color:#5294e2; }</style>
</defs>
<path class="ColorScheme-Text" d="m6.4902 0.99609c-3.0289 0-5.5 2.4746-5.5 5.5 0 3.0254 2.4711 5.5 5.5 5.5 1.152 0 2.2377-0.35784 3.125-0.96875l3.6875 3.6875a1.0055 1.0055 0 1 0 1.4062-1.4375l-3.6875-3.6875c0.61079-0.886 1-1.9438 1-3.0938 0-3.0254-2.5024-5.5-5.5312-5.5zm0 2c1.9474 0 3.5 1.5548 3.5 3.5 0 1.9451-1.5526 3.5-3.5 3.5s-3.5-1.5549-3.5-3.5c0-1.9452 1.5526-3.5 3.5-3.5z" fill="#dedede" fill-opacity=".85098"/>
</svg>
